X:1
T:Fly to the Ark of Rest
T:Fly to the Ark of Rest
T:Willliam Howard Doane
T:Frances Jane (Fanny) Crosby, 1875
T:Public Domain Courtesy of the Cyber Hymnal™
C:Willliam Howard Doane
Z:Public Domain
Z:Courtesy of the Cyber Hymnal™
%%score ( 1 2 ) ( 3 4 )
L:1/8
Q:1/4=90
M:6/8
K:Ab
V:1 treble 
V:2 treble 
V:3 bass 
V:4 bass 
V:1
 [CE] | [Ec]>[DB][CA] (BA)[DF] | ([C-E]3 [CA]2) E | [DF][EG][EA] [Ee]2 [Ec] | ([E-c]3 [EB]2) E | %5
w: 1.~O|fly to the Ark, * poor|soul, * No|ref- uge on earth so|near; * The|
w: 2.~O|fly to the Ark * of|Grace, * For|how canst thou brave the|storm * That|
w: 3.~O|fly to the Ark * of|Love, * The|world has no home for|thee; * O|
w: 4.~Come|in- to the Ark, * come|in, * And|Je- sus, the Lord, will|give * A|
 [Ec]>[DB][CA] (BA)[DF] | ([C-E]3 [CA]2) E | [DF][EG][EA] [EA]2 [EB] | [EA]3- [EA]2 || %9
w: bil- lows with- out * may|roll, * But|God will pro- tect thee|here. *|
w: com- eth so wild * a-|pace? * ’Twill|co- ver thy help- less|form. *|
w: come like the wea- * ry|dove, * And|sweet shall thy wel- come|be. *|
w: par- don for all * thy|sin— * Come|in- to the Ark and|live. *|
"^Refrain" [CA] | [Ec]3 [Ec][EB][EA] | [Ac]2 [Ac] [Ac]3 | [Ae]3 [Ae][Ad][Ac] | %13
w: ||||
w: Then|fly, fly to the|Ark of Rest,|There, there shall thy|
w: ||||
w: ||||
 [Ae]2 [Ac] !fermata![GB]2 E | [Ec]>[DB][CA] (BA)[DF] | ([C-E]3 [CA]2) E | %16
w: |||
w: soul be blest; O|haste, or the o- * pen|door * May|
w: |||
w: |||
 [DF][EG][EA] [EA]2 [EB] | [EA]3- [EA]2 |] %18
w: ||
w: close ere the day is|o’er. *|
w: ||
w: ||
V:2
 x | x3 D2 x | x5 E | x6 | x5 E | x3 D2 x | x5 E | x6 | x5 || x | x6 | x6 | x6 | x5 E | x3 D2 x | %15
 x5 E | x6 | x5 |] %18
V:3
 [A,,A,] | [A,,A,]>[A,,A,][A,,A,] [D,F,]2 [D,A,] | ([A,,-A,]3 [A,,E,]2) [C,A,] | %3
 [D,A,][D,B,][C,A,] [C,A,]2 [A,,A,] | [E,-A,]3 [E,G,]2 [E,G,] | %5
 [A,,A,]>[A,,A,][A,,A,] [D,F,]2 [D,A,] | ([A,,-A,]3 [A,,E,]2) [C,A,] | %7
 [D,A,][D,B,][C,A,] [E,C]2 [E,D] | [A,,C]3- [A,,C]2 || A, | A,3 A,[A,D][A,C] | %11
 [A,E]2 [A,E] [A,E]3 | [A,C]3 [A,C][A,F][A,E] | [A,C]2 [A,E] [E,E]2 [E,G,] | %14
 [A,,A,]>[A,,A,][A,,A,] [D,F,]2 [D,A,] | ([A,,-A,]3 [A,,E,]2) [C,A,] | %16
 [D,A,][D,B,][C,A,] [E,C]2 [E,D] | [A,,C]3- [A,,C]2 |] %18
V:4
 x | x6 | x6 | x6 | x6 | x6 | x6 | x6 | x5 || A, | A,3 A, x2 | x6 | x6 | x6 | x6 | x6 | x6 | x5 |] %18

